icons/light/ps1.svg

<svg width="16" height="16" viewBox="0 0 16 16" fill="none" xmlns="http://www.w3.org/2000/svg">
<path d="M14.5533 2.66667C14.88 2.66667 15.0867 2.93334 15 3.26001L12.8933 12.74C12.82 13.0667 12.5 13.3333 12.1733 13.3333H1.44666C1.12 13.3333 0.913331 13.0667 0.999998 12.74L3.10666 3.26001C3.18 2.93334 3.5 2.66667 3.82666 2.66667H14.5533ZM10.5533 10.6667H7.88666C7.58 10.6667 7.33333 10.92 7.33333 11.2267C7.33333 11.54 7.58 11.7933 7.88666 11.7933H10.5533C10.8667 11.7933 11.12 11.54 11.12 11.2267C11.12 10.92 10.8667 10.6667 10.5533 10.6667ZM3.85333 10.8533C3.79035 10.8972 3.73672 10.9532 3.69553 11.018C3.65435 11.0828 3.62643 11.1551 3.61341 11.2308C3.60039 11.3064 3.60251 11.3839 3.61967 11.4587C3.63682 11.5336 3.66866 11.6042 3.71333 11.6667C3.9 11.9467 4.27333 12 4.54 11.82C9.44 8.37334 9.47333 8.33334 9.50666 8.31334C9.62666 8.20667 9.68666 8.06001 9.69333 7.91334C9.7 7.78001 9.66666 7.66667 9.58666 7.54001L6.30666 4.02001C6.25409 3.96259 6.19046 3.91639 6.11959 3.88418C6.04873 3.85196 5.97208 3.83439 5.89426 3.83252C5.81643 3.83065 5.73903 3.84453 5.6667 3.87331C5.59437 3.90209 5.5286 3.94518 5.47333 4.00001C5.23333 4.21334 5.22 4.58667 5.44 4.82667L8.20666 7.78667L3.85333 10.8533Z" fill="#424242"/>
</svg>

<svg xmlns="http://www.w3.org/2000/svg" width="16" height="16" fill="none" xmlns:v="https://vecta.io/nano"><path d="M14.553 2.667c.327 0 .533.267.447.593l-2.107 9.48c-.073.327-.393.593-.72.593H1.447c-.327 0-.533-.267-.447-.593l2.107-9.48c.073-.327.393-.593.72-.593h10.727zm-4 8H7.887c-.307 0-.553.253-.553.56a.56.56 0 0 0 .553.567h2.667c.313 0 .567-.253.567-.567 0-.307-.253-.56-.567-.56zm-6.7.187a.58.58 0 0 0-.24.377.58.58 0 0 0 .1.436c.187.28.56.333.827.153l4.967-3.507c.12-.107.18-.253.187-.4.007-.133-.027-.247-.107-.373l-3.28-3.52a.58.58 0 0 0-.412-.187.58.58 0 0 0-.421.167c-.24.213-.253.587-.033.827l2.767 2.96-4.353 3.067z" fill="#424242"/></svg>
